data/styles/clear/style-clear/symbols/wayside_shrine-m.svg

<svg height="24" viewBox="0 0 24 24" width="24"><g fill="none" fill-rule="evenodd"><circle cx="12" cy="12" fill="#fff" opacity=".6" r="12"/><circle cx="12" cy="12" fill="#7f5933" r="11"/><path d="m11.9995431 4-5.9995431 6.1273333 1.03434097 1.0556 4.96611593-5.0717333 4.9652021 5.0717333 1.034341-1.0556zm4.0706617 8.1526667v5.8473333h-1.8274575v-3.2666667c0-1.2889333-1.0224625-2.3333333-2.284322-2.3333333-1.2618594 0-2.2843219 1.0444-2.2843219 2.3333333v3.2666667h-1.82745755v-5.7801333l4.14558745-4.1402667z" fill="#fff"/></g></svg>

<svg width="24" height="24" viewBox="0 0 24 24">
  <g fill="none" fill-rule="evenodd">
    <circle cx="12" cy="12" r="12" fill="#FFF" opacity=".6"/>
    <circle cx="12" cy="12" r="11" fill="#7F5933"/>
    <path fill="#FFF" d="M11.9995431,4 L6,10.1273333 L7.03434097,11.1829333 L12.0004569,6.1112 L16.965659,11.1829333 L18,10.1273333 L11.9995431,4 L11.9995431,4 Z M16.0702048,12.1526667 L16.0702048,18 L14.2427473,18 L14.2427473,14.7333333 C14.2427473,13.4444 13.2202848,12.4 11.9584253,12.4 C10.6965659,12.4 9.6741034,13.4444 9.6741034,14.7333333 L9.6741034,18 L7.84664585,18 L7.84664585,12.2198667 L11.9922333,8.0796 L16.0702048,12.1526667 L16.0702048,12.1526667 Z"/>
  </g>
</svg>
